source/images/icons/shortcut-odnoklassniki.svg

<svg width="14" height="14" viewBox="0 0 14 14" xmlns="http://www.w3.org/2000/svg">
<path d="M2.33333 0C1.04475 0 0 1.04475 0 2.33333V11.6667C0 12.9552 1.04475 14 2.33333 14H11.6667C12.9552 14 14 12.9552 14 11.6667V2.33333C14 1.04475 12.9552 0 11.6667 0H2.33333ZM7 2.33333C8.28654 2.33333 9.33333 3.38013 9.33333 4.66667C9.33333 5.95321 8.28654 7 7 7C5.71346 7 4.66667 5.95321 4.66667 4.66667C4.66667 3.38013 5.71346 2.33333 7 2.33333ZM7 3.5C6.69058 3.5 6.39383 3.62292 6.17504 3.84171C5.95625 4.0605 5.83333 4.35725 5.83333 4.66667C5.83333 4.97609 5.95625 5.27283 6.17504 5.49162C6.39383 5.71042 6.69058 5.83333 7 5.83333C7.30942 5.83333 7.60617 5.71042 7.82496 5.49162C8.04375 5.27283 8.16667 4.97609 8.16667 4.66667C8.16667 4.35725 8.04375 4.0605 7.82496 3.84171C7.60617 3.62292 7.30942 3.5 7 3.5ZM4.95435 7.29167C5.06641 7.29072 5.1799 7.32201 5.28019 7.38851C5.29973 7.40105 6.04421 7.875 7 7.875C7.96396 7.875 8.71309 7.3929 8.72038 7.38794C8.98871 7.21236 9.34998 7.28595 9.52702 7.55428C9.70377 7.82232 9.6324 8.18214 9.36523 8.36035C9.33198 8.38252 8.689 8.80359 7.75537 8.97217L9.4541 10.6709C9.68189 10.8987 9.68189 11.268 9.4541 11.4958C9.34006 11.6098 9.191 11.6667 9.04167 11.6667C8.89233 11.6667 8.74327 11.6098 8.62923 11.4958L7 9.86654L5.37077 11.4958C5.14298 11.7236 4.77369 11.7236 4.5459 11.4958C4.31811 11.268 4.31811 10.8987 4.5459 10.6709L6.24463 8.97217C5.31071 8.80359 4.66802 8.38281 4.63477 8.36035C4.36672 8.18185 4.29448 7.81947 4.47298 7.55143C4.58454 7.38427 4.76757 7.29324 4.95435 7.29167Z"/>
</svg>

<svg viewBox="0 0 14 14" xmlns="http://www.w3.org/2000/svg"><path d="M2.33 0a2.33 2.33 0 0 0-2.33 2.33v9.34a2.33 2.33 0 0 0 2.33 2.33h9.34a2.33 2.33 0 0 0 2.33-2.33v-9.34a2.33 2.33 0 0 0-2.33-2.33h-9.34Zm4.67 2.33a2.34 2.34 0 1 1 0 4.68 2.34 2.34 0 0 1 0-4.68Zm0 1.17a1.17 1.17 0 1 0 0 2.33 1.17 1.17 0 0 0 0-2.33Zm-2.05 3.8c.12 0 .23.02.33.09.02.01.76.49 1.72.49s1.71-.49 1.72-.5a.58.58 0 0 1 .65.98c-.04.02-.68.44-1.61.61l1.7 1.7a.58.58 0 0 1-.83.83l-1.63-1.63-1.63 1.63a.58.58 0 1 1-.82-.83l1.7-1.7a4.62 4.62 0 0 1-1.62-.61.58.58 0 0 1 .32-1.07Z"/></svg>
